X:1
T:1. Allemaingne
T:1. Allemaingne
T:Tielman Susato
C:Tielman Susato
%%score 1 2 3 4
L:1/8
M:4/2
K:C
V:1 treble 
V:2 treble 
V:3 treble 
V:4 treble 
V:1
 C2 B,2 C2 D2 C4 D4 | E8 E4 G4 | F8 E8 | D8 C8 | D2 C2 D2 E2 F4 D4 | E8 E8 :: E2 D2 E2 F2 E4 F4 | %7
 G8 F4 E4 | D2 C2 D2 E2 F4 D4 | E8 E8 :: E6 F2 E2 D2 C2 B,2 | A,8 G,8 | C4 D4 E4 C4 | D8 D4 C4 | %14
 B,2 C2 D2 C2 B,2 A,2 C2 B,2 | C8 C8 :|[M:3/2]"^Recoupe" C4 C4 D4 | E8 E4 | F4 F4 E4 | D8 C4 | %20
 D6 E2 F2 D2 | E8 E4 :: E6 D2 E2 F2 | G8 G4 | G4 F4 E4 | D8 C4 | D6 E2 F2 D2 | E8 E4 :: E8 E4 | %29
 E6 D2 C2 B,2 | A,8 G,4 | C6 D2 E2 C2 | D8 C4 | B,2 A,2 B,2 C2 D2 B,2 | C8 C4 :| %35
V:2
 G,8 A,4 B,4 | C8 C4 D4 | D8 C8 | B,8 A,8 | B,6 C2 D4 A,4 | C8 C8 :: C8 C4 A,4 | C4 B,4 A,4 C4 | %8
 D4 G,4 A,6 B,2 | C8 C8 :: C8 C8 | C8 C4 G,4 | A,4 B,4 C8 | _B,8 B,4 F,4 | G,4 A,4 G,8 | E,8 E,8 :| %16
[M:3/2] G,4 A,4 B,4 | C8 C4 | D4 D4 C4 | B,8 A,4 | B,4 A,6 B,2 | C8 C4 :: C8 C4 | C4 G,4 C4 | %24
 B,2 C2 D2 A,2 C4 | A,8 A,4 | F,4 D,4 A,2 B,2 | C8 C4 :: C8 C4 | C6 B,2 G,4 | C8 C4 | %31
 E6 D2 C2 B,2 | A,4 _B,4 G,4 | G,8 G,4 | E,8 E,4 :| %35
V:3
 C,8 E,4 F,4 | G,8 G,4 _B,4 | _B,8 G,8 | G,6 F,2 E,4 C,4 | G,8 A,4 F,4 | G,8 G,8 :: G,8 G,4 F,4 | %7
 E,4 D,4 F,4 G,4 | _B,8 A,4 F,4 | G,8 G,8 :: G,8 G,4 E,4 | F,8 E,8 | E,4 F,4 G,4 A,4 | %13
 F,8 G,4 C,4 | D,2 E,2 F,2 E,2 D,2 C,2 D,4 | C,8 C,8 :|[M:3/2] C,4 E,4 F,4 | G,8 G,4 | %18
 _B,4 B,4 G,4 | G,6 F,2 E,2 C,2 | G,4 F,2 G,2 A,2 F,2 | G,8 G,4 :: G,6 F,2 E,2 D,2 | %23
 E,6 D,2 E,2 F,2 | G,4 A,6 G,2 | F,8 E,4 | D,2 E,2 F,2 G,2 A,2 F,2 | G,8 G,4 :: G,8 G,4 | G,8 E,4 | %30
 F,8 E,4 | A,8 G,4 | F,8 E,4 | D,8 D,4 | C,8 C,4 :| %35
V:4
 C,8 A,,4 D,4 | C,8 C,4 G,,4 | _B,,8 C,8 | G,,8 A,,8 | G,,8 D,4 D,4 | C,8 C,8 :: C,8 C,4 D,4 | %7
 C,4 G,,4 D,4 C,4 | G,,8 D,4 D,4 | C,8 C,8 :: C,8 C,4 C,4 | F,,8 C,6 B,,2 | A,,4 D,4 C,4 A,,4 | %13
 _B,,8 G,,4 A,,4 | G,,4 F,,4 G,,8 | C,8 C,8 :|[M:3/2] C,4 A,,4 D,4 | C,8 C,4 | _B,,4 B,,4 C,4 | %19
 G,,8 A,,4 | G,,4 D,4 D,4 | C,8 C,4 :: C,8 C,4 | C,6 B,,2 C,2 D,2 | E,4 D,4 C,4 | D,8 A,,4 | %26
 _B,,4 D,8 | C,8 C,4 :: C,8 C,4 | C,8 C,4 | F,,8 C,4 | A,,6 B,,2 C,4 | D,4 _B,,4 C,4 | G,,8 G,4 | %34
 C,8 C,4 :| %35

